local/share/icons/dracula-icons-main/scalable/mimetypes/text-x-php.svg

<?xml version="1.0" encoding="UTF-8"?>
<svg xmlns="http://www.w3.org/2000/svg" xmlns:xlink="http://www.w3.org/1999/xlink" width="64" height="64" viewBox="0 0 64 64">
<defs>
<filter id="filter-remove-color" x="0%" y="0%" width="100%" height="100%">
<feColorMatrix color-interpolation-filters="sRGB" values="0 0 0 0 1 0 0 0 0 1 0 0 0 0 1 0 0 0 1 0" />
</filter>
<mask id="mask-0">
<g filter="url(#filter-remove-color)">
<rect x="-6.4" y="-6.4" width="76.8" height="76.8" fill="rgb(0%, 0%, 0%)" fill-opacity="0.1"/>
</g>
</mask>
<linearGradient id="linear-pattern-0" gradientUnits="userSpaceOnUse" x1="49.570999" y1="52.714001" x2="51.714001" y2="54.856998" gradientTransform="matrix(0.617345, 0, 0, 0.617345, -18.167916, -19.050025)">
<stop offset="0" stop-color="rgb(0%, 0%, 0%)" stop-opacity="1"/>
<stop offset="1" stop-color="rgb(0%, 0%, 0%)" stop-opacity="0"/>
</linearGradient>
<clipPath id="clip-0">
<rect x="0" y="0" width="17" height="17"/>
</clipPath>
<g id="source-7564" clip-path="url(#clip-0)">
<path fill-rule="evenodd" fill="url(#linear-pattern-0)" d="M 14.816406 12.171875 L 11.113281 15.875 L 13.492188 15.875 C 14.226562 15.875 14.816406 15.285156 14.816406 14.550781 Z M 14.816406 12.171875 "/>
</g>
</defs>
<path fill-rule="nonzero" fill="rgb(95.686275%, 95.686275%, 95.686275%)" fill-opacity="1" d="M 3.441406 1.058594 L 13.492188 1.058594 C 14.222656 1.058594 14.816406 1.652344 14.816406 2.382812 L 14.816406 14.550781 C 14.816406 15.28125 14.222656 15.875 13.492188 15.875 L 3.441406 15.875 C 2.707031 15.875 2.117188 15.28125 2.117188 14.550781 L 2.117188 2.382812 C 2.117188 1.652344 2.707031 1.058594 3.441406 1.058594 Z M 3.441406 1.058594 "/>
<g mask="url(#mask-0)">
<use xlink:href="#source-7564"/>
</g>
<path fill-rule="nonzero" fill="rgb(56.078431%, 46.27451%, 89.411765%)" fill-opacity="1" d="M 8.371094 6.324219 C 8.183594 6.324219 8.003906 6.347656 7.832031 6.390625 C 7.664062 6.433594 7.515625 6.492188 7.382812 6.5625 L 7.535156 6.988281 C 7.785156 6.855469 8.039062 6.789062 8.300781 6.789062 C 8.507812 6.789062 8.664062 6.839844 8.769531 6.949219 C 8.875 7.050781 8.929688 7.183594 8.929688 7.351562 C 8.929688 7.453125 8.90625 7.546875 8.859375 7.636719 C 8.816406 7.722656 8.757812 7.804688 8.6875 7.886719 C 8.617188 7.964844 8.539062 8.042969 8.460938 8.121094 C 8.382812 8.199219 8.308594 8.28125 8.234375 8.371094 C 8.164062 8.457031 8.105469 8.554688 8.058594 8.65625 C 8.015625 8.757812 7.992188 8.875 7.992188 9 C 7.992188 9.085938 8 9.171875 8.015625 9.25 L 8.480469 9.25 C 8.476562 9.230469 8.472656 9.207031 8.472656 9.183594 L 8.472656 9.121094 C 8.472656 8.988281 8.5 8.871094 8.550781 8.769531 C 8.601562 8.664062 8.664062 8.566406 8.738281 8.476562 C 8.816406 8.386719 8.898438 8.300781 8.988281 8.21875 C 9.078125 8.132812 9.164062 8.046875 9.238281 7.957031 C 9.3125 7.863281 9.375 7.769531 9.429688 7.664062 C 9.480469 7.558594 9.503906 7.4375 9.503906 7.304688 C 9.503906 7.195312 9.488281 7.085938 9.453125 6.972656 C 9.421875 6.851562 9.359375 6.746094 9.273438 6.652344 C 9.1875 6.554688 9.070312 6.480469 8.921875 6.417969 C 8.78125 6.355469 8.597656 6.324219 8.371094 6.324219 Z M 6.796875 7.433594 L 4.234375 8.519531 L 4.234375 8.996094 L 6.796875 10.082031 L 6.949219 9.625 L 4.84375 8.757812 L 6.949219 7.890625 Z M 10.136719 7.433594 L 9.980469 7.890625 L 12.089844 8.757812 L 9.980469 9.625 L 10.136719 10.082031 L 12.699219 8.996094 L 12.699219 8.519531 Z M 8.277344 9.8125 C 8.152344 9.8125 8.058594 9.851562 7.984375 9.933594 C 7.914062 10.011719 7.878906 10.105469 7.878906 10.210938 C 7.878906 10.316406 7.914062 10.410156 7.984375 10.488281 C 8.058594 10.570312 8.152344 10.609375 8.277344 10.609375 C 8.398438 10.609375 8.496094 10.570312 8.566406 10.488281 C 8.640625 10.410156 8.675781 10.316406 8.675781 10.210938 C 8.675781 10.105469 8.640625 10.011719 8.566406 9.933594 C 8.496094 9.851562 8.398438 9.8125 8.277344 9.8125 Z M 8.277344 9.8125 "/>
</svg>

<svg width="64" height="64" version="1.1" viewBox="0 0 16.933 16.933" xmlns="http://www.w3.org/2000/svg">
 <defs>
  <linearGradient id="a" x1="49.571" x2="51.714" y1="52.714" y2="54.857" gradientTransform="matrix(2.3333,0,0,2.3333,-68.667,-72.001)" gradientUnits="userSpaceOnUse">
   <stop offset="0"/>
   <stop stop-opacity="0" offset="1"/>
  </linearGradient>
 </defs>
 <g transform="scale(.26458)">
  <rect x="8" y="4" width="48" height="56" ry="5" fill="#f4f4f4" style="paint-order:stroke fill markers"/>
  <path d="m56 46-14 14h9c2.77 0 5-2.23 5-5z" fill="url(#a)" fill-rule="evenodd" opacity=".1" stroke-width="8.8191" style="paint-order:stroke fill markers"/>
 </g>
 <path d="m8.3719 6.3242c-0.18989 0-0.36988 0.02179-0.53999 0.0653-0.16616 0.04352-0.3165 0.1009-0.45101 0.1721l0.15428 0.42734c0.24923-0.13451 0.50446-0.20176 0.76556-0.20176 0.20572 0 0.36202 0.05333 0.46883 0.16014 0.10681 0.10286 0.16014 0.23737 0.16014 0.40353 0 0.10286-0.02369 0.19786-0.07116 0.28489-0.04352 0.08703-0.1009 0.17012-0.1721 0.24925-0.07121 0.07912-0.14632 0.15816-0.22544 0.23728-0.07912 0.07517-0.15436 0.15826-0.22557 0.24925-0.07121 0.08703-0.13049 0.18203-0.17796 0.28489-0.04352 0.10286-0.0653 0.21749-0.0653 0.34408 0 0.08704 0.0079 0.17013 0.02368 0.24925h0.46285c-4e-3 -0.01978-0.0059-0.04144-0.0059-0.06518v-0.0653c0-0.13055 0.02571-0.24734 0.07714-0.35019 0.05143-0.10681 0.11476-0.20371 0.18993-0.29074 0.07516-0.09099 0.15813-0.17801 0.24912-0.26109s0.17408-0.1701 0.24925-0.26108c0.07517-0.09099 0.1385-0.18789 0.18993-0.29074 0.05143-0.10682 0.07714-0.22752 0.07714-0.36203 0-0.10681-0.01773-0.21752-0.05334-0.33224-0.03165-0.11868-0.09105-0.22559-0.17809-0.32053-0.08703-0.09494-0.20369-0.17208-0.35007-0.23142-0.14242-0.0633-0.32646-0.09496-0.55196-0.09496zm-1.5752 1.1098-2.5635 1.086v0.47469l2.5635 1.086 0.15428-0.45699-2.1066-0.86638 2.1066-0.86638zm3.3394 0-0.15428 0.45687 2.1066 0.86638-2.1066 0.86638 0.15428 0.45699 2.5636-1.086v-0.47469zm-1.8592 2.3796c-0.12264 0-0.21954 0.03952-0.29075 0.11864-0.07121 0.079119-0.1068 0.17209-0.1068 0.27891s0.03559 0.19978 0.1068 0.27891c0.07121 0.07912 0.16811 0.11877 0.29075 0.11877s0.21966-0.03965 0.29087-0.11877 0.1068-0.17209 0.1068-0.27891c0-0.10681-0.03559-0.19978-0.1068-0.27891-0.07121-0.07912-0.16823-0.11864-0.29087-0.11864z" enable-background="new" fill="#8f76e4"/>
</svg>
